src/components/content/Icon/functional/location.svg

<svg width="100" height="100" viewBox="0 0 100 100" fill="none" xmlns="http://www.w3.org/2000/svg">
<path d="M57.68 41.1081C57.68 36.7121 54.104 33.1381 49.71 33.1381C48.502 33.1381 47.338 33.4041 46.256 33.9261C46.1376 33.9831 46.0317 34.063 45.9442 34.161C45.8567 34.2591 45.7894 34.3734 45.7461 34.4975C45.7028 34.6215 45.6844 34.7529 45.6919 34.8841C45.6995 35.0153 45.7328 35.1437 45.79 35.2621C45.8471 35.3804 45.9269 35.4864 46.0249 35.5739C46.123 35.6614 46.2373 35.7287 46.3614 35.7719C46.4855 35.8152 46.6169 35.8336 46.7481 35.8261C46.8793 35.8186 47.0077 35.7852 47.126 35.7281C47.936 35.3361 48.806 35.1381 49.71 35.1381C53.002 35.1381 55.68 37.8161 55.68 41.1081C55.68 44.4001 53.002 47.0781 49.71 47.0781C46.418 47.0781 43.74 44.4001 43.74 41.1081C43.74 39.9841 44.056 38.8881 44.652 37.9401C44.946 37.4721 44.806 36.8561 44.338 36.5621C44.2269 36.492 44.1032 36.4446 43.9738 36.4224C43.8443 36.4003 43.7118 36.4039 43.5838 36.4331C43.4558 36.4623 43.3348 36.5164 43.2278 36.5924C43.1207 36.6684 43.0297 36.7648 42.96 36.8761C42.162 38.144 41.7391 39.6119 41.74 41.1101C41.74 45.5061 45.316 49.0801 49.71 49.0801C54.104 49.0801 57.68 45.5041 57.68 41.1101V41.1081Z" fill="#0B301A"/>
<path d="M55.638 64.4621C56.868 62.9621 58.254 61.1901 59.634 59.2461C64.814 51.9581 67.44 45.8561 67.44 41.1081C67.44 31.3321 59.486 23.3781 49.71 23.3781C39.934 23.3781 31.98 31.3321 31.98 41.1081C31.98 45.8561 34.606 51.9581 39.786 59.2461C43.648 64.6821 47.548 68.8001 47.98 69.2521C48.43 69.7221 49.06 69.9921 49.71 69.9921C50.36 69.9921 50.992 69.7221 51.44 69.2521C51.65 69.0321 52.684 67.9401 54.136 66.2521C57.782 66.7521 61.484 67.9941 61.484 70.0781C61.484 72.3901 56.298 74.2001 49.68 74.2001C43.062 74.2001 37.876 72.3901 37.876 70.0781C37.876 68.8481 39.278 67.7461 41.826 66.9761C42.354 66.8161 42.654 66.2581 42.494 65.7301C42.4173 65.4763 42.2429 65.2634 42.0093 65.1381C41.7756 65.0129 41.5018 64.9855 41.248 65.0621C36.808 66.4041 35.876 68.5301 35.876 70.0781C35.876 71.5281 36.702 73.5441 40.636 74.9041C43.052 75.7401 46.262 76.2001 49.68 76.2001C53.098 76.2001 56.308 75.7401 58.724 74.9041C62.658 73.5441 63.484 71.5281 63.484 70.0781C63.484 67.3281 60.716 65.3641 55.638 64.4621ZM49.994 67.8701C49.846 68.0241 49.572 68.0241 49.424 67.8701C49.002 67.4281 45.194 63.4081 41.414 58.0881C36.55 51.2421 33.978 45.3721 33.978 41.1081C33.978 32.4341 41.034 25.3781 49.708 25.3781C58.382 25.3781 65.438 32.4341 65.438 41.1081C65.438 45.3721 62.866 51.2421 58.002 58.0881C56.212 60.6081 54.416 62.8341 52.976 64.5301C52.97 64.5381 52.964 64.5441 52.958 64.5521C51.368 66.4241 50.214 67.64 49.994 67.8721V67.8701Z" fill="#0B301A"/>
</svg>

<svg xmlns="http://www.w3.org/2000/svg" width="100" height="100" fill="none" viewBox="0 0 100 100"><path fill="#0b301a" d="M57.68 41.108c0-4.396-3.576-7.97-7.97-7.97a7.9 7.9 0 0 0-3.454.788 1 1 0 0 0 .105 1.846 1 1 0 0 0 .765-.044c.81-.392 1.68-.59 2.584-.59a5.977 5.977 0 0 1 5.97 5.97 5.977 5.977 0 0 1-5.97 5.97 5.977 5.977 0 0 1-5.97-5.97c0-1.124.316-2.22.912-3.168a.998.998 0 1 0-1.692-1.064 7.94 7.94 0 0 0-1.22 4.234c0 4.396 3.576 7.97 7.97 7.97s7.97-3.576 7.97-7.97z"/><path fill="#0b301a" d="M55.638 64.462a95 95 0 0 0 3.996-5.216c5.18-7.288 7.806-13.39 7.806-18.138 0-9.776-7.954-17.73-17.73-17.73s-17.73 7.954-17.73 17.73c0 4.748 2.626 10.85 7.806 18.138 3.862 5.436 7.762 9.554 8.194 10.006.45.47 1.08.74 1.73.74s1.282-.27 1.73-.74c.21-.22 1.244-1.312 2.696-3 3.646.5 7.348 1.742 7.348 3.826 0 2.312-5.186 4.122-11.804 4.122s-11.804-1.81-11.804-4.122c0-1.23 1.402-2.332 3.95-3.102a1 1 0 0 0-.578-1.914c-4.44 1.342-5.372 3.468-5.372 5.016 0 1.45.826 3.466 4.76 4.826 2.416.836 5.626 1.296 9.044 1.296s6.628-.46 9.044-1.296c3.934-1.36 4.76-3.376 4.76-4.826 0-2.75-2.768-4.714-7.846-5.616m-5.644 3.408a.41.41 0 0 1-.57 0c-.422-.442-4.23-4.462-8.01-9.782-4.864-6.846-7.436-12.716-7.436-16.98 0-8.674 7.056-15.73 15.73-15.73s15.73 7.056 15.73 15.73c0 4.264-2.572 10.134-7.436 16.98a96 96 0 0 1-5.026 6.442l-.018.022c-1.59 1.872-2.744 3.088-2.964 3.32z"/></svg>
